app/img/insta.svg

<svg width="20" height="20" viewBox="0 0 20 20" fill="none" xmlns="http://www.w3.org/2000/svg">
<path d="M5.8 0H14.2C17.4032 0 20 2.59675 20 5.8V14.2C20 17.4033 17.4032 20 14.2 20H5.8C2.59675 20 0 17.4033 0 14.2V5.8C0 2.59675 2.59675 0 5.8 0ZM5.6 1.99998C3.61177 1.99998 2 3.61176 2 5.59998V14.4C2 16.3882 3.61177 18 5.6 18H14.4C16.3882 18 18 16.3882 18 14.4V5.59998C18 3.61176 16.3882 1.99998 14.4 1.99998H5.6ZM15.25 3.49998C15.9404 3.49998 16.5 4.05963 16.5 4.74998C16.5 5.44034 15.9404 5.99998 15.25 5.99998C14.5596 5.99998 14 5.44034 14 4.74998C14 4.05963 14.5596 3.49998 15.25 3.49998ZM10 4.99998C12.7614 4.99998 15 7.23856 15 9.99998C15 12.7614 12.7614 15 10 15C7.23857 15 5 12.7614 5 9.99998C5 7.23856 7.23857 4.99998 10 4.99998ZM10 6.99998C8.3431 6.99998 7 8.34318 7 9.99998C7 11.6569 8.3431 13 10 13C11.6569 13 13 11.6569 13 9.99998C13 8.34318 11.6569 6.99998 10 6.99998Z" fill="#FBD784"/>
</svg>

<svg width="20" height="20" fill="none" xmlns="http://www.w3.org/2000/svg"><path d="M5.8 0h8.4A5.8 5.8 0 0120 5.8v8.4a5.8 5.8 0 01-5.8 5.8H5.8A5.8 5.8 0 010 14.2V5.8A5.8 5.8 0 015.8 0zm-.2 2A3.6 3.6 0 002 5.6v8.8A3.6 3.6 0 005.6 18h8.8a3.6 3.6 0 003.6-3.6V5.6A3.6 3.6 0 0014.4 2H5.6zm9.65 1.5a1.25 1.25 0 110 2.5 1.25 1.25 0 010-2.5zM10 5a5 5 0 110 10 5 5 0 010-10zm0 2a3 3 0 100 6 3 3 0 000-6z" fill="#FBD784"/></svg>
